docs/abcrace/images/upper/Q.svg

<svg xmlns="http://www.w3.org/2000/svg" width="761" height="905" viewBox="-10 0 761 905"><path fill="currentColor" d="m666 896-85-85q-92 63-217 63-194 0-294-141-80-113-80-290 0-219 123-341Q217 0 377 0q194 0 294 141 80 113 80 290-1 200-104 321l80 77q14 15 14 29 0 28-28 42-11 5-21 5-17-1-26-9zM511 744l-86-82q-13-14-13-27 0-29 29-42 11-5 21-5 16 1 27 10l85 84q67-97 67-250 0-201-106-291-66-54-159-54-146 0-220 125-56 93-56 230 0 201 106 291 66 54 159 54 85-1 146-43z"/></svg>

<svg xmlns="http://www.w3.org/2000/svg" xmlns:svg="http://www.w3.org/2000/svg" id="svg4" width="761" height="905" version="1.1" viewBox="-10 0 761 905"><path id="path2" fill="currentColor" d="M 666,896 581,811 Q 489,874 364,874 170,874 70,733 -10,620 -10,443 -10,224 113,102 217,0 377,0 q 194,0 294,141 80,113 80,290 -1,200 -104,321 l 80,77 q 14,15 14,29 0,28 -28,42 -11,5 -21,5 -17,-1 -26,-9 z M 511,744 425,662 q -13,-14 -13,-27 0,-29 29,-42 11,-5 21,-5 16,1 27,10 l 85,84 Q 641,585 641,432 641,231 535,141 469,87 376,87 230,87 156,212 q -56,93 -56,230 0,201 106,291 66,54 159,54 85,-1 146,-43 z"/></svg>
